X: 143
T: Lady Ann Gordon's Reel
R: reel
M: C|
L: 1/8
Z: 2011 John Chambers <jc:trillian.mit.edu>
B: Abraham Mackintosh "A Collection of Strathspeys, Reels, Jigs &c.", Newcastle, after 1797, p.14
F: http://imslp.info/files/imglnks/usimg/a/a8/IMSLP80796-PMLP164326-Abraham_Mackintosh_coll.pdf
K: D
V: 1
   B | ADFD EB,-B,B | ADFD d3f | gfed eBBd | FD F/G/A d3 :|
|: f | dg f/g/a beef | dg f/g/a/g/ fdec | dB AF EFGE | FD F/G/A d3 :|
V: 2 clef=bass middle=d
   z | d2d2 g2g2 | f2d2 f2d2 | cdef g2G2 | d2d2 d2D :|
|: z | d2d2 g2a2 | b2c'2 d'2a2 | d'2d2 a2A2 | d2D2 d3 :|

%%sep 2 1 500

